X:1
T: Dogs in the Barley
C:
R:Jig
Q:180
K:Em
M:6/8
L:1/16
B4E2 EFED3|B4E2 E2E2E2|B4d2 A4G2|F4D2 D4D2|
B4E2 EFED3|B4E2 E2E2E2|B4d2 A4F2|E6 E6|
e4g2 a2g2e2|b4e2 g4e2|d4g2 a2g2e2|f4g2 a3f3|
e4g2 a2g2e2|b4e2 g4e2|d4B2 A4F2|E6 E6|
e4g2 a2g2e2|b4e2 g4e2|d4b2 a2g2e2|f4g2 a4f2|
g4g2 g4e2|f2f2f2 f4e2|d4B2 A4F2|E6 E6||
